X: 26748
T: Milky Way, The
R: reel
M: 4/4
K: Dmajor
|:D2 F/E/D FAA2|defd efd2|D2 F/E/D FA~A2|BF~F2 BFAF|
D2 F/E/D FAA2|defd ef d2|efdB AF~F2|1 AFEG FDDE:|2 AFEG FD D2||
|:efdB AF~F2|defd ef d2|efdB AF~F2|AFEG FD D2|
efdB AF~F2|defd efde|f2 df efdB|1 AFEG FD D2:|2 AFEG FDDE||

